Assets/Images/Components/Moon.svg

<svg xmlns="http://www.w3.org/2000/svg" width="24" height="24" viewBox="0 0 24 24"><path d="M12 10.999c1.437.438 2.562 1.564 2.999 3.001.44-1.437 1.565-2.562 3.001-3-1.436-.439-2.561-1.563-3.001-3-.437 1.436-1.562 2.561-2.999 2.999zm8.001.001c.958.293 1.707 1.042 2 2.001.291-.959 1.042-1.709 1.999-2.001-.957-.292-1.707-1.042-2-2-.293.958-1.042 1.708-1.999 2zm-1-9c-.437 1.437-1.563 2.562-2.998 3.001 1.438.44 2.561 1.564 3.001 3.002.437-1.438 1.563-2.563 2.996-3.002-1.433-.437-2.559-1.564-2.999-3.001zm-7.001 22c-6.617 0-12-5.383-12-12s5.383-12 12-12c1.894 0 3.63.497 5.37 1.179-2.948.504-9.37 3.266-9.37 10.821 0 7.454 5.917 10.208 9.37 10.821-1.5.846-3.476 1.179-5.37 1.179z"/></svg>

<svg width="24" height="24" viewBox="0 0 24 24" fill="#8E8D8D" xmlns="http://www.w3.org/2000/svg">
<path d="M12 10.999C13.437 11.437 14.562 12.563 14.999 14C15.439 12.563 16.564 11.438 18 11C16.564 10.561 15.439 9.437 14.999 8C14.562 9.436 13.437 10.561 12 10.999ZM20.001 11C20.959 11.293 21.708 12.042 22.001 13.001C22.292 12.042 23.043 11.292 24 11C23.043 10.708 22.293 9.958 22 9C21.707 9.958 20.958 10.708 20.001 11ZM19.001 2C18.564 3.437 17.438 4.562 16.003 5.001C17.441 5.441 18.564 6.565 19.004 8.003C19.441 6.565 20.567 5.44 22 5.001C20.567 4.564 19.441 3.437 19.001 2ZM12 24C5.383 24 0 18.617 0 12C0 5.383 5.383 0 12 0C13.894 0 15.63 0.497 17.37 1.179C14.422 1.683 8 4.445 8 12C8 19.454 13.917 22.208 17.37 22.821C15.87 23.667 13.894 24 12 24Z" fill="#8E8D8D"/>
</svg>
